svgs/solid/dice.svg

<svg xmlns="http://www.w3.org/2000/svg" viewBox="0 0 640 512"><!-- Font Awesome Pro 6.0.0-alpha2 by @fontawesome - https://fontawesome.com License - https://fontawesome.com/license (Commercial License) --><path d="M592 192H473.25C477.668 202.266 479.879 213.252 479.879 224.231C479.879 244.934 472.014 265.61 456.25 281.375L320 417.625V464C320 490.5 341.5 512 368 512H592C618.5 512 640 490.5 640 464V240C640 213.5 618.5 192 592 192ZM480 376C466.75 376 456 365.25 456 352S466.75 328 480 328S504 338.75 504 352S493.25 376 480 376ZM447.999 224C447.999 211.436 443.217 198.871 433.654 189.244L258.753 14.346C249.127 4.781 236.563 -0.001 224 -0.001S198.872 4.781 189.246 14.346L14.345 189.244C4.782 198.871 0 211.436 0 224S4.782 249.128 14.345 258.754L189.246 433.654C198.872 443.218 211.436 448 224 448S249.127 443.218 258.753 433.654L433.654 258.754C443.217 249.128 447.999 236.564 447.999 224ZM96 248C82.75 248 72 237.25 72 224S82.75 200 96 200S120 210.75 120 224S109.25 248 96 248ZM224 376C210.75 376 200 365.25 200 352S210.75 328 224 328S248 338.75 248 352S237.25 376 224 376ZM224 248C210.75 248 200 237.25 200 224S210.75 200 224 200S248 210.75 248 224S237.25 248 224 248ZM224 120C210.75 120 200 109.25 200 96S210.75 72 224 72S248 82.75 248 96S237.25 120 224 120ZM352 248C338.75 248 328 237.25 328 224S338.75 200 352 200S376 210.75 376 224S365.25 248 352 248Z "></path></svg>

<svg xmlns="http://www.w3.org/2000/svg" viewBox="0 0 640 512"><!--! Font Awesome Pro 6.3.0 by @fontawesome - https://fontawesome.com License - https://fontawesome.com/license (Commercial License) Copyright 2023 Fonticons, Inc. --><path d="M252.3 11.7c-15.6-15.6-40.9-15.6-56.6 0l-184 184c-15.6 15.6-15.6 40.9 0 56.6l184 184c15.6 15.6 40.9 15.6 56.6 0l184-184c15.6-15.6 15.6-40.9 0-56.6l-184-184zM248 224c0 13.3-10.7 24-24 24s-24-10.7-24-24s10.7-24 24-24s24 10.7 24 24zM96 248c-13.3 0-24-10.7-24-24s10.7-24 24-24s24 10.7 24 24s-10.7 24-24 24zm128 80c13.3 0 24 10.7 24 24s-10.7 24-24 24s-24-10.7-24-24s10.7-24 24-24zm128-80c-13.3 0-24-10.7-24-24s10.7-24 24-24s24 10.7 24 24s-10.7 24-24 24zM224 72c13.3 0 24 10.7 24 24s-10.7 24-24 24s-24-10.7-24-24s10.7-24 24-24zm96 392c0 26.5 21.5 48 48 48H592c26.5 0 48-21.5 48-48V240c0-26.5-21.5-48-48-48H472.5c13.4 26.9 8.8 60.5-13.6 82.9L320 413.8V464zm160-88c-13.3 0-24-10.7-24-24s10.7-24 24-24s24 10.7 24 24s-10.7 24-24 24z"/></svg>
